build/system/DesktopMonitoringOutline.svg

<svg xmlns="http://www.w3.org/2000/svg" fill="none" viewBox="0 0 24 24" focusable="false"><path d="M0 0H24V24H0z"/><path fill="#74767B" fill-rule="evenodd" d="M3.01025 7.04419C3.01025 5.35962 4.37598 3.99414 6.06006 3.99414L17.9414 3.99414C19.626 3.99414 20.9912 5.35962 20.9912 7.04419L20.9912 13.9658C20.9912 15.6504 19.626 17.0159 17.9414 17.0159L13.9902 17.0159L13.9902 18.7026L15.3398 18.7026C15.6992 18.7026 15.9902 18.9937 15.9902 19.3525C15.9902 19.7117 15.6992 20.0027 15.3398 20.0027L8.65967 20.0027C8.30078 20.0027 8.00977 19.7117 8.00977 19.3525C8.00977 18.9937 8.30078 18.7026 8.65967 18.7026L10.0068 18.7026L10.0068 17.0159L6.06006 17.0159C4.37598 17.0159 3.01025 15.6504 3.01025 13.9658L3.01025 7.04419ZM10.6816 15.7158L6.06006 15.7158C5.09375 15.7158 4.31006 14.9324 4.31006 13.9658L4.31006 11.1316L8.40918 11.1316L9.47412 12.707C9.60986 12.9084 9.84668 13.0171 10.0884 12.9888C10.3296 12.9604 10.5347 12.8 10.6206 12.5725L11.8052 9.43286L12.9214 13.9185C12.9902 14.1953 13.231 14.3948 13.5156 14.4106C13.8003 14.4265 14.062 14.2551 14.1611 13.988L15.2222 11.1316L19.6914 11.1316L19.6914 13.9658C19.6914 14.9324 18.9077 15.7158 17.9414 15.7158L10.6816 15.7158ZM19.6914 9.83154L14.7705 9.83154C14.4985 9.83154 14.2559 10.0005 14.1611 10.2554L13.6748 11.5637L12.5635 7.09619C12.4951 6.82031 12.2549 6.62085 11.9707 6.60425C11.687 6.58765 11.4253 6.75757 11.3247 7.02368L9.84766 10.9385L9.29297 10.1177C9.17236 9.93872 8.9707 9.83154 8.75439 9.83154L4.31006 9.83154L4.31006 7.04419C4.31006 6.07764 5.09375 5.29419 6.06006 5.29419L17.9414 5.29419C18.9077 5.29419 19.6914 6.07764 19.6914 7.04419L19.6914 9.83154ZM12.6899 17.0159L12.6899 18.7026L11.3071 18.7026L11.3071 17.0159L12.6899 17.0159Z"/></svg>

<svg xmlns="http://www.w3.org/2000/svg" fill="none" viewBox="0 0 24 24" focusable="false"><path fill="#74767B" fill-rule="evenodd" d="M3.01 7.04c0-1.69 1.36-3.05 3.05-3.05h11.88a3.05 3.05 0 0 1 3.05 3.05v6.92a3.05 3.05 0 0 1-3.05 3.05h-3.95v1.69h1.34c.36 0 .66.29.66.65s-.3.65-.66.65H8.65c-.35 0-.65-.29-.65-.65s.3-.65.65-.65H10v-1.69H6.06c-1.69 0-3.05-1.36-3.05-3.05zm7.67 8.67H6.06c-.97 0-1.75-.78-1.75-1.75v-2.83H8.4l1.07 1.57c.13.2.37.31.61.28.24-.02.45-.18.54-.41l1.18-3.14 1.12 4.48c.07.28.31.48.59.5.29.01.55-.16.65-.43l1.06-2.85h4.47v2.83c0 .97-.79 1.75-1.75 1.75zm9.01-5.88h-4.92c-.28 0-.52.17-.61.42l-.49 1.31-1.11-4.47a.66.66 0 0 0-.59-.49.64.64 0 0 0-.65.42l-1.48 3.91-.55-.82a.64.64 0 0 0-.54-.28H4.31V7.04c0-.97.78-1.75 1.75-1.75h11.88c.96 0 1.75.78 1.75 1.75zm-7.01 7.18v1.69H11.3v-1.69z"/></svg>
